X:45
T:On Armas Mulle Aallon Tie! (A Sailor Loves the Sea's Waves)
M:3/4
L:1/4
Q:1/4=160
R:waltz
K:D
|: A, | "D" F2 F | "A7" F2 E | E2 D | "D" D2 F |
A3 | "G" G2 B | "D" (A3 | A) z :| A | "G" (B3 | B) z d | !
"D" (A3 | A) z F | "A7" G3 | A2 G |
"D" (F3 | F) z A, | F F F | "A7" E2 A | "D" (D3 | D) z ||
